images/tabs/ombi.svg

<?xml version="1.0" encoding="UTF-8"?>
<svg xmlns="http://www.w3.org/2000/svg" xmlns:xlink="http://www.w3.org/1999/xlink" width="600" height="600" viewBox="0 0 600 600">
  <defs>
    <linearGradient id="a" x1="0%" y1="50%" y2="50%">
      <stop offset="0%" stop-color="#CA7D29"/>
      <stop offset="100%" stop-color="#F6BD16"/>
    </linearGradient>
    <linearGradient id="b" x1="0%" y1="50%" y2="50%">
      <stop offset="0%" stop-color="#1F1F1F"/>
      <stop offset="100%" stop-color="#2C2C2C"/>
    </linearGradient>
  </defs>
  <g fill="none" fill-rule="nonzero">
    <circle cx="300" cy="300" r="300" fill="url(#a)"/>
    <circle cx="300" cy="300" r="280" fill="url(#b)"/>
    <path fill="url(#a)" d="M463.985 433.944l-88.515-89.258c-1.03-1.033-2.169-1.822-3.256-2.68 14.952-23.134 23.683-50.69 23.683-80.37C395.897 180.093 330.353 114 249.45 114 168.589 114 103 180.093 103 261.636c0 81.554 65.589 147.632 146.449 147.632 29.43 0 56.795-8.825 79.778-23.902.837 1.122 1.604 2.237 2.618 3.262l88.526 89.268c6.044 6.076 13.916 9.104 21.8 9.104 7.887 0 15.765-3.028 21.803-9.09 12.026-12.151 12.026-31.824.01-43.966M249.45 362.649c-55.237 0-100.2-45.322-100.2-101.013 0-55.684 44.964-101.016 100.2-101.016 55.235 0 100.199 45.332 100.199 101.016 0 55.69-44.964 101.013-100.2 101.013"/>
  </g>
</svg>

<?xml version="1.0" encoding="UTF-8"?>
<svg width="600px" height="600px" viewBox="0 0 600 600" version="1.1" xmlns="http://www.w3.org/2000/svg" xmlns:xlink="http://www.w3.org/1999/xlink">
    <!-- Generator: Sketch 51 (57462) - http://www.bohemiancoding.com/sketch -->
    <title>ombi</title>
    <desc>Created with Sketch.</desc>
    <defs>
        <linearGradient x1="0%" y1="50%" x2="100%" y2="50%" id="linearGradient-1">
            <stop stop-color="#CA7D29" offset="0%"></stop>
            <stop stop-color="#F6BD16" offset="100%"></stop>
        </linearGradient>
        <linearGradient x1="0%" y1="50%" x2="100%" y2="50%" id="linearGradient-2">
            <stop stop-color="#1F1F1F" offset="0%"></stop>
            <stop stop-color="#2C2C2C" offset="100%"></stop>
        </linearGradient>
    </defs>
    <g id="Page-1" stroke="none" stroke-width="1" fill="none" fill-rule="evenodd">
        <g id="ombi" fill-rule="nonzero">
            <circle id="Oval" fill="url(#linearGradient-1)" cx="300" cy="300" r="300"></circle>
            <circle id="Oval" fill="url(#linearGradient-2)" cx="300" cy="300" r="280"></circle>
            <path d="M463.985,433.944 L375.47,344.686 C374.44,343.653 373.301,342.864 372.214,342.006 C387.166,318.872 395.897,291.316 395.897,261.636 C395.897,180.093 330.353,114 249.45,114 C168.589,114 103,180.093 103,261.636 C103,343.19 168.589,409.268 249.449,409.268 C278.879,409.268 306.244,400.443 329.227,385.366 C330.064,386.488 330.831,387.603 331.845,388.628 L420.371,477.896 C426.415,483.972 434.287,487 442.171,487 C450.058,487 457.936,483.972 463.974,477.91 C476,465.759 476,446.086 463.984,433.944 M249.45,362.649 C194.213,362.649 149.25,317.327 149.25,261.636 C149.25,205.952 194.214,160.62 249.45,160.62 C304.685,160.62 349.649,205.952 349.649,261.636 C349.649,317.326 304.685,362.649 249.449,362.649" id="Shape" fill="url(#linearGradient-1)"></path>
        </g>
    </g>
</svg>
